X: 3
T: Le tourment
T: The Torment
C: Jean-Paul Loyer
O: Qubec
M: 6/8
L: 1/8
K: G
F \
| "C"E2E EFG | "G"DGF GAB | "Bm"d2d dcB | "Am"cBA "G"BAG \
| "C"E2E EFG | "G"DGF GAB | "Bm"dcB "Am"cBA | "D7"DGF "G"G2 :|
 D \
|: "G"GFG "Am"AGA | "G"Bdc BAG | "C"E2c cBc | "D7"d2d def \
| "Em"gfg "(D)"d2d | "C"ede "G"B2B | "Am"cBA "G"BAG |1 "D7"AGF DEF :|2 "D7"AGF "G"G2 |]
%%sep 1 1 10cm
